X: 74
T:Jump at the Sun
R:Jig
C:John Kirkpatrick
S:Nottingham Music Database
M:6/8
L:1/8
Q:3/8=120
K:Dm
F/2E/2|DFA ^G2A|DFA ^G2A|dAA dAA|AGF E2F|
DFA ^G2A|DFA ^G2A|dAA BAG|FGE D2:|
dAA fed|eAA gfe|fed fed|ecA B2A|
dAA fed|eAA gfe|dAA BAG|FGE D2:|
